#define kblack_width 50
#define kblack_height 50
static unsigned char kblack_bits[] = {
  0x00, 0x00, 0x00, 0x00, 0x00, 0x00, 0x00, 0x00, 0x00, 0x00, 0x00, 0x00, 
  0x00, 0x00, 0x00, 0x00, 0x00, 0x00, 0x00, 0x00, 0x00, 0x00, 0x00, 0x00, 
  0x00, 0x00, 0x00, 0x00, 0x00, 0x00, 0x00, 0x00, 0x00, 0x00, 0x00, 0x00, 
  0x00, 0x00, 0x00, 0x00, 0x00, 0x00, 0x00, 0x00, 0x00, 0x00, 0x00, 0x00, 
  0x00, 0x00, 0x00, 0x00, 0x03, 0x00, 0x00, 0x00, 0x00, 0x00, 0xE0, 0x1F, 
  0x00, 0x00, 0x00, 0x00, 0x00, 0xC0, 0x0F, 0x00, 0x00, 0x00, 0x00, 0x00, 
  0x00, 0x03, 0x00, 0x00, 0x00, 0x00, 0x00, 0x00, 0x03, 0x00, 0x00, 0x00, 
  0x00, 0x00, 0x00, 0x03, 0x00, 0x00, 0x00, 0x00, 0x00, 0xC0, 0x0F, 0x00, 
  0x00, 0x00, 0x00, 0x00, 0xE0, 0x1F, 0x00, 0x00, 0x00, 0x00, 0x00, 0xE0, 
  0x1F, 0x00, 0x00, 0x00, 0x00, 0x00, 0xE0, 0x1F, 0x00, 0x00, 0x00, 0x00, 
  0xFC, 0xE1, 0x1F, 0x7F, 0x00, 0x00, 0x00, 0x06, 0xE7, 0xFF, 0x83, 0x01, 
  0x00, 0x00, 0x01, 0xF8, 0x7F, 0x00, 0x02, 0x00, 0x80, 0xFC, 0xF1, 0x1F, 
  0xFE, 0x04, 0x00, 0x00, 0xFE, 0xC7, 0x8F, 0xFF, 0x01, 0x00, 0x00, 0xFF, 
  0x8F, 0xE7, 0xFF, 0x03, 0x00, 0x00, 0xFF, 0x1F, 0xE3, 0xFF, 0x03, 0x00, 
  0x00, 0xFF, 0x3F, 0xFB, 0xFF, 0x03, 0x00, 0x00, 0xFF, 0x7F, 0xF8, 0xFF, 
  0x03, 0x00, 0x00, 0xFE, 0xFF, 0xFC, 0xFF, 0x09, 0x00, 0x40, 0xFE, 0xFF, 
  0xFC, 0xFF, 0x01, 0x00, 0x00, 0xFC, 0xFF, 0xFC, 0xFF, 0x00, 0x00, 0x00, 
  0xF9, 0xFF, 0xFC, 0x7F, 0x00, 0x00, 0x00, 0xF3, 0x07, 0xC0, 0x3F, 0x01, 
  0x00, 0x00, 0x06, 0x00, 0x00, 0x8C, 0x00, 0x00, 0x00, 0x00, 0xFA, 0xFF, 
  0x40, 0x00, 0x00, 0x00, 0x80, 0xFF, 0xFF, 0x03, 0x00, 0x00, 0x00, 0xF0, 
  0x03, 0x80, 0x1F, 0x00, 0x00, 0x00, 0x70, 0x00, 0x00, 0x1C, 0x00, 0x00, 
  0x00, 0x10, 0xFF, 0xFF, 0x00, 0x00, 0x00, 0x00, 0xC0, 0x7F, 0xFC, 0x07, 
  0x00, 0x00, 0x00, 0xF0, 0x03, 0x80, 0x1F, 0x00, 0x00, 0x00, 0x30, 0xC0, 
  0x07, 0x18, 0x00, 0x00, 0x00, 0x00, 0xFE, 0xFF, 0x00, 0x00, 0x00, 0x00, 
  0xC0, 0xFF, 0xFF, 0x07, 0x00, 0x00, 0x00, 0xC0, 0xFF, 0xFF, 0x07, 0x00, 
  0x00, 0x00, 0x00, 0xFF, 0xFF, 0x01, 0x00, 0x00, 0x00, 0x00, 0xF0, 0x0F, 
  0x00, 0x00, 0x00, 0x00, 0x00, 0x00, 0x00, 0x00, 0x00, 0x00, 0x00, 0x00, 
  0x00, 0x00, 0x00, 0x00, 0x00, 0x00, 0x00, 0x00, 0x00, 0x00, 0x00, 0x00, 
  0x00, 0x00, 0x00, 0x00, 0x00, 0x00, 0x00, 0x00, 0x00, 0x00, 0x00, 0x00, 
  0x00, 0x00, };
