#define kwhite_width 50
#define kwhite_height 50
static unsigned char kwhite_bits[] = {
  0x00, 0x00, 0x00, 0x00, 0x00, 0x00, 0x00, 0x00, 0x00, 0x00, 0x00, 0x00, 
  0x00, 0x00, 0x00, 0x00, 0x00, 0x00, 0x00, 0x00, 0x00, 0x00, 0x00, 0x00, 
  0x00, 0x00, 0x00, 0x00, 0x00, 0x00, 0x00, 0x00, 0x00, 0x00, 0x00, 0x00, 
  0x00, 0x00, 0x00, 0x00, 0x00, 0x00, 0x00, 0x00, 0x00, 0x00, 0x00, 0x00, 
  0x00, 0x00, 0x00, 0x00, 0x03, 0x00, 0x00, 0x00, 0x00, 0x00, 0xE0, 0x1F, 
  0x00, 0x00, 0x00, 0x00, 0x00, 0xC0, 0x0F, 0x00, 0x00, 0x00, 0x00, 0x00, 
  0x00, 0x03, 0x00, 0x00, 0x00, 0x00, 0x00, 0x00, 0x03, 0x00, 0x00, 0x00, 
  0x00, 0x00, 0x00, 0x03, 0x00, 0x00, 0x00, 0x00, 0x00, 0xC0, 0x0F, 0x00, 
  0x00, 0x00, 0x00, 0x00, 0xE0, 0x1C, 0x00, 0x00, 0x00, 0x00, 0x00, 0x60, 
  0x18, 0x00, 0x00, 0x00, 0x00, 0x00, 0x20, 0x10, 0x00, 0x00, 0x00, 0x00, 
  0xFC, 0x21, 0x10, 0x7F, 0x00, 0x00, 0x00, 0xFE, 0x27, 0xF0, 0xFF, 0x01, 
  0x00, 0x00, 0x03, 0x3E, 0xF0, 0x00, 0x03, 0x00, 0x80, 0x01, 0x78, 0x38, 
  0x00, 0x06, 0x00, 0xC0, 0x00, 0x60, 0x1C, 0x00, 0x0C, 0x00, 0xC0, 0x00, 
  0xC0, 0x0C, 0x00, 0x0C, 0x00, 0x40, 0x00, 0x80, 0x07, 0x00, 0x08, 0x00, 
  0x40, 0x00, 0x80, 0x03, 0x00, 0x08, 0x00, 0x40, 0x00, 0x00, 0x03, 0x00, 
  0x0C, 0x00, 0xC0, 0x00, 0x00, 0x03, 0x00, 0x0C, 0x00, 0xC0, 0x00, 0x00, 
  0x03, 0x00, 0x04, 0x00, 0x80, 0x01, 0x00, 0x03, 0x00, 0x06, 0x00, 0x00, 
  0x03, 0x00, 0x03, 0x00, 0x03, 0x00, 0x00, 0x07, 0xF8, 0x3F, 0x80, 0x01, 
  0x00, 0x00, 0xCE, 0xFF, 0xFF, 0xC3, 0x00, 0x00, 0x00, 0xF8, 0x05, 0x00, 
  0x7F, 0x00, 0x00, 0x00, 0x70, 0x00, 0x00, 0x1C, 0x00, 0x00, 0x00, 0x30, 
  0xFC, 0x7F, 0x18, 0x00, 0x00, 0x00, 0xB0, 0xFF, 0xFF, 0x1B, 0x00, 0x00, 
  0x00, 0xF0, 0x00, 0x00, 0x1F, 0x00, 0x00, 0x00, 0x30, 0x80, 0x02, 0x1C, 
  0x00, 0x00, 0x00, 0x30, 0xFC, 0x7F, 0x18, 0x00, 0x00, 0x00, 0xF0, 0x3F, 
  0xF8, 0x1F, 0x00, 0x00, 0x00, 0xF0, 0x01, 0x00, 0x1F, 0x00, 0x00, 0x00, 
  0xF0, 0x00, 0x00, 0x1E, 0x00, 0x00, 0x00, 0xC0, 0x07, 0xC0, 0x07, 0x00, 
  0x00, 0x00, 0x00, 0xFF, 0xFF, 0x01, 0x00, 0x00, 0x00, 0x00, 0xF0, 0x0F, 
  0x00, 0x00, 0x00, 0x00, 0x00, 0x00, 0x00, 0x00, 0x00, 0x00, 0x00, 0x00, 
  0x00, 0x00, 0x00, 0x00, 0x00, 0x00, 0x00, 0x00, 0x00, 0x00, 0x00, 0x00, 
  0x00, 0x00, 0x00, 0x00, 0x00, 0x00, 0x00, 0x00, 0x00, 0x00, 0x00, 0x00, 
  0x00, 0x00, };
