#define nblack_width 50
#define nblack_height 50
static unsigned char nblack_bits[] = {
  0x00, 0x00, 0x00, 0x00, 0x00, 0x00, 0x00, 0x00, 0x00, 0x00, 0x00, 0x00, 
  0x00, 0x00, 0x00, 0x00, 0x00, 0x00, 0x00, 0x00, 0x00, 0x00, 0x00, 0x00, 
  0x00, 0x00, 0x00, 0x00, 0x00, 0x00, 0x00, 0x00, 0x00, 0x00, 0x00, 0x00, 
  0x00, 0x00, 0x00, 0x00, 0x00, 0x00, 0x00, 0x00, 0x00, 0x00, 0x00, 0x00, 
  0x00, 0x00, 0x80, 0xC0, 0x00, 0x00, 0x00, 0x00, 0x00, 0xC0, 0xE3, 0x01, 
  0x00, 0x00, 0x00, 0x00, 0xC0, 0xE3, 0x01, 0x00, 0x00, 0x00, 0x00, 0xC0, 
  0xFF, 0x01, 0x00, 0x00, 0x00, 0x00, 0xC0, 0xFF, 0x7F, 0x00, 0x00, 0x00, 
  0x00, 0xC0, 0xFF, 0x87, 0x01, 0x00, 0x00, 0x00, 0xC0, 0xFF, 0x0F, 0x02, 
  0x00, 0x00, 0x00, 0xE0, 0xFF, 0x3F, 0x04, 0x00, 0x00, 0x00, 0x60, 0xFE, 
  0xFF, 0x08, 0x00, 0x00, 0x00, 0x70, 0xFC, 0xFF, 0x11, 0x00, 0x00, 0x00, 
  0x38, 0xFE, 0xFF, 0x23, 0x00, 0x00, 0x00, 0x38, 0xFE, 0xFF, 0x67, 0x00, 
  0x00, 0x00, 0xFC, 0xFF, 0xFF, 0x47, 0x00, 0x00, 0x00, 0xFE, 0xFF, 0xFF, 
  0x8F, 0x00, 0x00, 0x00, 0xFE, 0xFF, 0xFF, 0x8F, 0x00, 0x00, 0x00, 0xFF, 
  0xFF, 0xFF, 0x9F, 0x01, 0x00, 0x00, 0xFF, 0xFF, 0xFF, 0x1F, 0x01, 0x00, 
  0x80, 0xFF, 0xFF, 0xFF, 0x3F, 0x01, 0x00, 0x80, 0xFF, 0xFF, 0xFF, 0x3F, 
  0x01, 0x00, 0xC0, 0xFF, 0xFF, 0xFE, 0x3F, 0x03, 0x00, 0xC0, 0xF9, 0x3F, 
  0xFE, 0x3F, 0x02, 0x00, 0xC0, 0xF9, 0x1F, 0xFF, 0x7F, 0x02, 0x00, 0xC0, 
  0xF9, 0x0F, 0xFF, 0x7F, 0x06, 0x00, 0xC0, 0xFF, 0x07, 0xFF, 0x7F, 0x06, 
  0x00, 0xC0, 0xFF, 0x81, 0xFF, 0x7F, 0x06, 0x00, 0x80, 0xFF, 0xC0, 0xFF, 
  0x7F, 0x06, 0x00, 0x00, 0xFF, 0xE0, 0xFF, 0x7F, 0x06, 0x00, 0x00, 0x78, 
  0xF0, 0xFF, 0x7F, 0x04, 0x00, 0x00, 0x00, 0xF8, 0xFF, 0x7F, 0x04, 0x00, 
  0x00, 0x00, 0xFC, 0xFF, 0x7F, 0x04, 0x00, 0x00, 0x00, 0xFC, 0xFF, 0x7F, 
  0x04, 0x00, 0x00, 0x00, 0xFE, 0xFF, 0x7F, 0x04, 0x00, 0x00, 0x00, 0xFF, 
  0xFF, 0x7F, 0x04, 0x00, 0x00, 0x00, 0xFF, 0xFF, 0x7F, 0x04, 0x00, 0x00, 
  0x00, 0xFF, 0xFF, 0x7F, 0x04, 0x00, 0x00, 0x00, 0xFF, 0xFF, 0x7F, 0x04, 
  0x00, 0x00, 0x00, 0xFF, 0xFF, 0xFF, 0x04, 0x00, 0x00, 0x00, 0x00, 0x00, 
  0x00, 0x00, 0x00, 0x00, 0x00, 0x00, 0x00, 0x00, 0x00, 0x00, 0x00, 0x00, 
  0x00, 0x00, 0x00, 0x00, 0x00, 0x00, 0x00, 0x00, 0x00, 0x00, 0x00, 0x00, 
  0x00, 0x00, 0x00, 0x00, 0x00, 0x00, 0x00, 0x00, 0x00, 0x00, 0x00, 0x00, 
  0x00, 0x00, };
