#define nwhite_width 50
#define nwhite_height 50
static unsigned char nwhite_bits[] = {
  0x00, 0x00, 0x00, 0x00, 0x00, 0x00, 0x00, 0x00, 0x00, 0x00, 0x00, 0x00, 
  0x00, 0x00, 0x00, 0x00, 0x00, 0x00, 0x00, 0x00, 0x00, 0x00, 0x00, 0x00, 
  0x00, 0x00, 0x00, 0x00, 0x00, 0x00, 0x00, 0x00, 0x00, 0x00, 0x00, 0x00, 
  0x00, 0x00, 0x00, 0x00, 0x00, 0x00, 0x00, 0x00, 0x00, 0x00, 0x00, 0x00, 
  0x00, 0x00, 0x80, 0xC0, 0x00, 0x00, 0x00, 0x00, 0x00, 0xC0, 0xE3, 0x01, 
  0x00, 0x00, 0x00, 0x00, 0xC0, 0x63, 0x01, 0x00, 0x00, 0x00, 0x00, 0xC0, 
  0x3E, 0x01, 0x00, 0x00, 0x00, 0x00, 0xC0, 0x1C, 0x7F, 0x00, 0x00, 0x00, 
  0x00, 0xC0, 0x00, 0xF4, 0x01, 0x00, 0x00, 0x00, 0xC0, 0x00, 0x80, 0x03, 
  0x00, 0x00, 0x00, 0x60, 0x00, 0x00, 0x07, 0x00, 0x00, 0x00, 0xA0, 0x01, 
  0x00, 0x0C, 0x00, 0x00, 0x00, 0xB0, 0x03, 0x00, 0x18, 0x00, 0x00, 0x00, 
  0xD8, 0x01, 0x00, 0x30, 0x00, 0x00, 0x00, 0xD8, 0x01, 0x00, 0x70, 0x00, 
  0x00, 0x00, 0x0C, 0x00, 0x00, 0x60, 0x00, 0x00, 0x00, 0x06, 0x00, 0x0C, 
  0xC0, 0x00, 0x00, 0x00, 0x06, 0x00, 0x04, 0x80, 0x00, 0x00, 0x00, 0x03, 
  0x00, 0x06, 0x80, 0x01, 0x00, 0x00, 0x03, 0x00, 0x07, 0x80, 0x01, 0x00, 
  0x80, 0x01, 0x80, 0x07, 0x80, 0x01, 0x00, 0x80, 0x01, 0xC0, 0x07, 0x00, 
  0x01, 0x00, 0xC0, 0x00, 0xE0, 0x02, 0x00, 0x03, 0x00, 0xC0, 0x06, 0x70, 
  0x02, 0x00, 0x03, 0x00, 0x40, 0x06, 0x18, 0x03, 0x00, 0x02, 0x00, 0x40, 
  0x06, 0x0E, 0x03, 0x00, 0x02, 0x00, 0xC0, 0x10, 0x07, 0x01, 0x00, 0x06, 
  0x00, 0xC0, 0xB8, 0x81, 0x01, 0x00, 0x06, 0x00, 0x80, 0xFD, 0xC0, 0x00, 
  0x00, 0x06, 0x00, 0x00, 0xDF, 0xE0, 0x00, 0x00, 0x06, 0x00, 0x00, 0x78, 
  0x70, 0x00, 0x00, 0x06, 0x00, 0x00, 0x00, 0x38, 0x00, 0x00, 0x06, 0x00, 
  0x00, 0x00, 0x1C, 0x00, 0x00, 0x06, 0x00, 0x00, 0x00, 0x0E, 0x00, 0x00, 
  0x06, 0x00, 0x00, 0x00, 0x06, 0x00, 0x00, 0x06, 0x00, 0x00, 0x00, 0x03, 
  0x00, 0x00, 0x06, 0x00, 0x00, 0x00, 0x03, 0x00, 0x00, 0x06, 0x00, 0x00, 
  0x00, 0x03, 0x00, 0x00, 0x06, 0x00, 0x00, 0x00, 0x03, 0x00, 0x00, 0x07, 
  0x00, 0x00, 0x00, 0xFF, 0xFF, 0xFF, 0x07, 0x00, 0x00, 0x00, 0x00, 0x00, 
  0x00, 0x00, 0x00, 0x00, 0x00, 0x00, 0x00, 0x00, 0x00, 0x00, 0x00, 0x00, 
  0x00, 0x00, 0x00, 0x00, 0x00, 0x00, 0x00, 0x00, 0x00, 0x00, 0x00, 0x00, 
  0x00, 0x00, 0x00, 0x00, 0x00, 0x00, 0x00, 0x00, 0x00, 0x00, 0x00, 0x00, 
  0x00, 0x00, };
