#define qblack_width 50
#define qblack_height 50
static unsigned char qblack_bits[] = {
  0x00, 0x00, 0x00, 0x00, 0x00, 0x00, 0x00, 0x00, 0x00, 0x00, 0x00, 0x00, 
  0x00, 0x00, 0x00, 0x00, 0x00, 0x00, 0x00, 0x00, 0x00, 0x00, 0x00, 0x00, 
  0x00, 0x00, 0x00, 0x00, 0x00, 0x00, 0x00, 0x00, 0x00, 0x00, 0x00, 0x00, 
  0x00, 0x00, 0x00, 0x00, 0x00, 0x00, 0x00, 0x00, 0x80, 0x07, 0x00, 0x00, 
  0x00, 0x00, 0xC0, 0xC1, 0x0F, 0x0E, 0x00, 0x00, 0x00, 0xE0, 0xC3, 0x0F, 
  0x1F, 0x00, 0x00, 0x00, 0xE0, 0xC7, 0x8F, 0x1F, 0x00, 0x00, 0xC0, 0xE0, 
  0xC7, 0x8F, 0x1F, 0x0C, 0x00, 0xF0, 0xE1, 0x03, 0x03, 0x1F, 0x3E, 0x00, 
  0xF0, 0xC3, 0x01, 0x03, 0x0E, 0x3F, 0x00, 0xF0, 0x83, 0x01, 0x03, 0x06, 
  0x3F, 0x00, 0xF0, 0x81, 0x03, 0x03, 0x07, 0x3E, 0x00, 0xE0, 0x81, 0x83, 
  0x07, 0x07, 0x1E, 0x00, 0x80, 0x81, 0x87, 0x87, 0x07, 0x06, 0x00, 0x80, 
  0x83, 0x87, 0x87, 0x07, 0x07, 0x00, 0x80, 0x87, 0xC7, 0x8F, 0x87, 0x07, 
  0x00, 0x80, 0x87, 0x8F, 0xC7, 0x87, 0x07, 0x00, 0x00, 0x8F, 0xCF, 0xCF, 
  0xC7, 0x03, 0x00, 0x80, 0x8F, 0xCF, 0xCF, 0xC7, 0x07, 0x00, 0x00, 0x9F, 
  0xDF, 0xEF, 0xE7, 0x03, 0x00, 0x00, 0xBF, 0xFF, 0xFF, 0xF7, 0x03, 0x00, 
  0x00, 0xFF, 0xFF, 0xFF, 0xFF, 0x03, 0x00, 0x00, 0xFE, 0xFF, 0xFF, 0xFF, 
  0x01, 0x00, 0x00, 0xFE, 0xFF, 0xFF, 0xFF, 0x01, 0x00, 0x00, 0xFE, 0xFF, 
  0xFF, 0xFF, 0x01, 0x00, 0x00, 0xFE, 0xFF, 0xFF, 0xFF, 0x01, 0x00, 0x00, 
  0xFE, 0x0F, 0xC0, 0xFF, 0x01, 0x00, 0x00, 0x7C, 0x00, 0x00, 0xF8, 0x00, 
  0x00, 0x00, 0x0C, 0xFC, 0xFF, 0xC0, 0x00, 0x00, 0x00, 0x80, 0xFF, 0xFF, 
  0x07, 0x00, 0x00, 0x00, 0xF0, 0xFF, 0xFF, 0x3F, 0x00, 0x00, 0x00, 0x00, 
  0x00, 0x00, 0x00, 0x00, 0x00, 0x00, 0x00, 0x00, 0x00, 0x00, 0x00, 0x00, 
  0x00, 0xF0, 0xFF, 0xFF, 0x3F, 0x00, 0x00, 0x00, 0xE0, 0xFF, 0xFF, 0x1F, 
  0x00, 0x00, 0x00, 0x08, 0xFF, 0xFF, 0x43, 0x00, 0x00, 0x00, 0x38, 0x00, 
  0x00, 0x70, 0x00, 0x00, 0x00, 0xFC, 0x03, 0x00, 0x7F, 0x00, 0x00, 0x00, 
  0xC4, 0xFF, 0xFF, 0x0F, 0x00, 0x00, 0x00, 0x08, 0xF8, 0x7F, 0x00, 0x00, 
  0x00, 0x00, 0x38, 0x00, 0x00, 0x30, 0x00, 0x00, 0x00, 0x80, 0x0F, 0xC0, 
  0x07, 0x00, 0x00, 0x00, 0x00, 0xF0, 0x3F, 0x00, 0x00, 0x00, 0x00, 0x00, 
  0x00, 0x00, 0x00, 0x00, 0x00, 0x00, 0x00, 0x00, 0x00, 0x00, 0x00, 0x00, 
  0x00, 0x00, 0x00, 0x00, 0x00, 0x00, 0x00, 0x00, 0x00, 0x00, 0x00, 0x00, 
  0x00, 0x00, };
