#define qwhite_width 50
#define qwhite_height 50
static unsigned char qwhite_bits[] = {
  0x00, 0x00, 0x00, 0x00, 0x00, 0x00, 0x00, 0x00, 0x00, 0x00, 0x00, 0x00, 
  0x00, 0x00, 0x00, 0x00, 0x00, 0x00, 0x00, 0x00, 0x00, 0x00, 0x00, 0x00, 
  0x00, 0x00, 0x00, 0x00, 0x00, 0x00, 0x00, 0x00, 0x00, 0x00, 0x00, 0x00, 
  0x00, 0x00, 0x03, 0x00, 0x00, 0x00, 0x00, 0xC0, 0x81, 0x07, 0x00, 0x00, 
  0x00, 0x00, 0xE0, 0xC3, 0x0C, 0x0E, 0x00, 0x00, 0x00, 0x60, 0xC7, 0x0C, 
  0x1F, 0x00, 0x00, 0x00, 0x30, 0xC6, 0x8C, 0x11, 0x00, 0x00, 0xC0, 0x60, 
  0x87, 0x87, 0x11, 0x0C, 0x00, 0xF0, 0xC1, 0x03, 0x03, 0x1F, 0x3E, 0x00, 
  0x30, 0xC3, 0x01, 0x03, 0x0E, 0x33, 0x00, 0x10, 0x83, 0x01, 0x03, 0x06, 
  0x23, 0x00, 0xB0, 0x81, 0x83, 0x07, 0x06, 0x36, 0x00, 0xE0, 0x81, 0x83, 
  0x07, 0x07, 0x1E, 0x00, 0x80, 0x81, 0x87, 0x07, 0x07, 0x06, 0x00, 0x80, 
  0x83, 0x86, 0x84, 0x05, 0x07, 0x00, 0x00, 0x87, 0xC6, 0x8C, 0x85, 0x03, 
  0x00, 0x00, 0x87, 0xC4, 0x8C, 0x84, 0x03, 0x00, 0x00, 0x8F, 0xCC, 0xCC, 
  0xC4, 0x03, 0x00, 0x00, 0x9F, 0xC8, 0x4C, 0xE4, 0x03, 0x00, 0x00, 0x9B, 
  0xD8, 0x6C, 0x64, 0x03, 0x00, 0x00, 0xB3, 0x78, 0x78, 0x34, 0x03, 0x00, 
  0x00, 0xE2, 0x70, 0x38, 0x1C, 0x01, 0x00, 0x00, 0xE2, 0x70, 0x38, 0x1C, 
  0x01, 0x00, 0x00, 0xC2, 0x70, 0x38, 0x0C, 0x01, 0x00, 0x00, 0xC6, 0xFF, 
  0xFF, 0x8F, 0x01, 0x00, 0x00, 0xFE, 0xFF, 0xFF, 0xFF, 0x01, 0x00, 0x00, 
  0x0E, 0x00, 0x00, 0xC0, 0x01, 0x00, 0x00, 0x04, 0x00, 0x00, 0x80, 0x00, 
  0x00, 0x00, 0x0C, 0x00, 0x00, 0xC0, 0x00, 0x00, 0x00, 0xF8, 0xFF, 0xFF, 
  0x7F, 0x00, 0x00, 0x00, 0xF0, 0x3F, 0xF0, 0x3F, 0x00, 0x00, 0x00, 0x30, 
  0x00, 0x00, 0x30, 0x00, 0x00, 0x00, 0x20, 0x00, 0x00, 0x10, 0x00, 0x00, 
  0x00, 0xE0, 0xFF, 0xFF, 0x1F, 0x00, 0x00, 0x00, 0xF0, 0x03, 0x00, 0x3F, 
  0x00, 0x00, 0x00, 0x18, 0x00, 0x00, 0x60, 0x00, 0x00, 0x00, 0x18, 0x00, 
  0x00, 0x60, 0x00, 0x00, 0x00, 0x0C, 0x00, 0x00, 0x60, 0x00, 0x00, 0x00, 
  0x0C, 0x00, 0x00, 0x60, 0x00, 0x00, 0x00, 0xF8, 0x03, 0x00, 0x7F, 0x00, 
  0x00, 0x00, 0xF8, 0xFF, 0xFF, 0x3F, 0x00, 0x00, 0x00, 0x00, 0x00, 0x00, 
  0x00, 0x00, 0x00, 0x00, 0x00, 0x00, 0x00, 0x00, 0x00, 0x00, 0x00, 0x00, 
  0x00, 0x00, 0x00, 0x00, 0x00, 0x00, 0x00, 0x00, 0x00, 0x00, 0x00, 0x00, 
  0x00, 0x00, 0x00, 0x00, 0x00, 0x00, 0x00, 0x00, 0x00, 0x00, 0x00, 0x00, 
  0x00, 0x00, };
